X:207
T:Wee Todd 
C:Joe Buchanan's Scottish Tome - Page 282.1
I:282 1
Z:Carl Allison
C:AKA Strip the Willow
R:Jig
L:1/8
M:6/8
K:Amaj
"A"AAA FEE | "A"EAA "D"fee | "A"cee "F#m"fec | "Bm"BcB "E7"AFE |
"F#m"AAA "E7"FEE | "F#m"EAA "E7"fee | "A"cec "E7"BcB | "A"A3 A2 :|
"A"cee ece | "D"fee "A"cee | "D"f2e f2a | "D"f2e "E7"cBc |
"F#m"AAA "E7"FEE | "F#m"EAA "E7"fee | "A"cec "D7"BcB | "A"A3 A2 :|

